dist/svg/u1F9E6.svg

<?xml version="1.0" encoding="UTF-8"?><svg id="a" xmlns="http://www.w3.org/2000/svg" viewBox="0 0 40 40"><path d="M9.01,5.658h7.137c1.273,0,2.306,1.032,2.306,2.306v10.594c0,1.685,.754,3.281,2.056,4.351l6.242,4.954c2.42,1.989,3.025,5.555,1.189,8.093-2.009,2.777-5.899,3.242-8.497,1.106l-9.812-7.889c-1.847-1.518-2.917-3.783-2.918-6.173l-.007-15.036c0-1.273,1.032-2.305,2.306-2.305Z" fill="#466cfb"/><g><path d="M13.744,2.602h7.137c1.273,0,2.306,1.032,2.306,2.306V15.502c0,1.685,.754,3.281,2.056,4.351l6.242,4.954c2.42,1.989,3.025,5.555,1.189,8.093-2.009,2.777-5.899,3.242-8.497,1.106l-9.812-7.889c-1.847-1.518-2.917-3.783-2.918-6.173l-.007-15.036c0-1.273,1.032-2.305,2.306-2.305Z" fill="#7d9dff"/><path d="M11.442,19.944v-2.477c.283-.04,.57-.068,.865-.068,3.427,0,6.206,2.778,6.206,6.206,0,1.726-.706,3.286-1.843,4.411l-2.31-1.899c-1.847-1.518-2.917-3.783-2.918-6.173Z" fill="#a8bfff"/><path d="M31.481,24.806c2.42,1.989,3.025,5.555,1.189,8.093-2.009,2.777-5.899,3.242-8.497,1.106l-1.011-.831,7.459-9.075,.861,.708Z" fill="#a8bfff"/></g><rect width="40" height="40" fill="none"/></svg>

<svg id="Layer_1" data-name="Layer 1" xmlns="http://www.w3.org/2000/svg" viewBox="0 0 40 40"><defs><style>.cls-1{fill:#466cfb;}.cls-2{fill:#7d9dff;}.cls-3{fill:#a8bfff;}.cls-4{fill:none;}</style></defs><path class="cls-1" d="M9.01,5.658h7.137a2.305,2.305,0,0,1,2.306,2.306V18.558a5.633,5.633,0,0,0,2.055,4.351l6.242,4.953a6,6,0,0,1,1.19,8.094,5.875,5.875,0,0,1-8.5,1.1L9.63,29.173A8,8,0,0,1,6.712,23L6.705,7.964A2.305,2.305,0,0,1,9.01,5.658Z"/><path class="cls-2" d="M13.744,2.6h7.137a2.305,2.305,0,0,1,2.3,2.305V15.5a5.632,5.632,0,0,0,2.056,4.351l6.242,4.953A6,6,0,0,1,32.673,32.9a5.873,5.873,0,0,1-8.5,1.106l-9.813-7.889a8,8,0,0,1-2.918-6.172L11.438,4.907A2.305,2.305,0,0,1,13.744,2.6Z"/><path class="cls-3" d="M11.442,19.944V17.466a6.2,6.2,0,0,1,5.23,10.55l-2.311-1.9A8,8,0,0,1,11.442,19.944Z"/><path class="cls-3" d="M31.481,24.806A6,6,0,0,1,32.67,32.9a5.873,5.873,0,0,1-8.5,1.106l-1.012-.831L30.62,24.1Z"/><rect class="cls-4" width="40" height="40"/></svg>
